X:7931
T:Oats peas beans and barley grow
C:anon.
O:England?
Z:Transcribed by Laura Conrad - http://www.laymusic.org
F:http://abc.musicaviva.com/tunes/england/oats-peats.abc
M:C
L:1/4
K:G
B B B A | G G G2 |
w:Oats peas beans and bar- ley grows.
c c c B | A A A c/c/|
w:Oats peas beans and bar- ley grows.  Nei- ther
B B d c | B/B/ B D B |
w:you nor I nor a- ny- one knows how
A c B A | G G G2 |
w:Oats peas beans and bar- ley grows.
W:
W:Oats peas beans and barley grows. :|
W:Neither you nor I nor anyone knows
W:how oats peas beans and barley grows.
W:
W:
W:  From Musica Viva - http://www.musicaviva.com
W:  the Internet center for free sheet music downloads.

